/* XPM */
static char *dollar1[] = {
/* width height num_colors chars_per_pixel */
"    29    46        2            1",
/* colors */
". c #bbecbb",
"# c #fdfdfd",
/* pixels */
"#############################",
"#############################",
"#############################",
"##########.#####.############",
"##########.#####.############",
"##########.#####.############",
"##########.#####.############",
"#########........############",
"#######..............########",
"######.....#####.###...######",
"#####...##.#####.##.....#####",
"####...###.#####.##.....#####",
"###...####.#####.#......#####",
"###...####.#####.#......#####",
"##....####.#####.##.....#####",
"##....####.#####.###...######",
"##....####.#####.############",
"##.....###.#####.############",
"###.....##.#####.############",
"###..........###.############",
"####...............##########",
"####.................########",
"#####..................######",
"#######................######",
"#########...............#####",
"##########.#####.........####",
"##########.#####.###.....####",
"##########.#####.####....####",
"###....###.#####.#####...####",
"###.....##.#####.#####...####",
"##......##.#####.#####...####",
"##......##.#####.#####...####",
"##......##.#####.#####..#####",
"###....###.#####.####...#####",
"####..####.#####.####..######",
"#####...##.#####.##...#######",
"######.....#####.....########",
"########...........##########",
"##########.#####.############",
"##########.#####.############",
"##########.#####.############",
"##########.#####.############",
"##########.#####.############",
"#############################",
"#############################",
"#############################"
};
